X: 517
T:Andy Kerrin's set dance
M:4/4
L:1/8
Q:130
D:Cathal McConnell's 'Lough Erne's Shore'
N:Posted to the woodenflute mailing list May 2002
Z:Andrew Pickering
K:G
B|E2 ED EFGA|B2 BA B2 e{a}e|B2 e{a}e B2 A2|GBFB E3 D|
E2 ED EFGA|B2 BA B2 e{d}e|B2 e{d}e B2 A2|GBFB E2 (3def||
g2 B2 dBGB|cABG EGFE|DEFG ABcd|(3efe d^c d2 (3def|
g2 B2 dBGB|cABG EGFE|DEFG AcBA|G2 B2 G4:|

